static/images/mobile/copyright/wikipedia-wordmark-dsb.svg

<?xml version="1.0" encoding="UTF-8"?>
<svg width="120px" height="22px" viewBox="0 0 120 22" version="1.1" xmlns="http://www.w3.org/2000/svg" xmlns:xlink="http://www.w3.org/1999/xlink">
    <title>dsb-wordmark</title>
    <g id="Page-1" stroke="none" stroke-width="1" fill="none" fill-rule="evenodd">
        <path d="M26.9241236,0.289497904 C27.0820315,0.447405851 27.0820315,1.00008367 26.9241236,1.15799161 C25.1871381,1.36853554 24.8713193,2.3949372 24.3186424,3.6055648 L18.1075965,17.0277403 C17.9233706,17.4225102 17.7654626,17.6330541 17.4759647,17.6330541 C17.2127848,17.6330541 17.0022409,17.4225102 16.8706509,17.0277403 L13.3177221,9.39552288 L9.44897738,17.0277403 C9.29106943,17.4225102 9.10684349,17.6330541 8.81734559,17.6330541 C8.55416568,17.6330541 8.36993974,17.4225102 8.21203179,17.0277403 L2.4747097,3.55292882 C1.68517074,1.68435144 1.63253252,1.28958157 0.13240848,1.15799161 C-0.0254992727,1.00008367 -0.051817264,0.447405851 0.106090489,0.289497904 C1.34303481,0.315815895 1.790443,0.342133886 2.84316158,0.342133886 C3.86956226,0.342133886 4.52751399,0.315815895 5.76445861,0.289497904 C5.92236655,0.447405851 5.92236655,1.00008367 5.76445861,1.15799161 C4.10642711,1.34221755 4.02747216,1.76330541 4.68542097,3.26343091 L9.50161336,14.2380333 L9.63320332,14.2380333 L12.5545003,8.26384925 L10.3437891,3.55292882 C9.47529635,1.68435144 9.26475047,1.31589956 8.13307782,1.15799161 C7.97516987,1.00008367 7.94885188,0.447405851 8.10675983,0.289497904 C8.94893457,0.315815895 9.39634237,0.342133886 10.449061,0.342133886 C11.4754617,0.342133886 11.8965515,0.315815895 12.8439983,0.289497904 C13.0019062,0.447405851 13.0019062,1.00008367 12.8439983,1.15799161 C11.7386436,1.31589956 11.8439156,1.76330541 12.5545003,3.26343091 L13.8440819,5.92154803 L13.9756719,6.05313799 L15.3705254,3.42133886 C16.1600642,1.89489537 16.2916541,1.31589956 15.1599815,1.15799161 C15.0020735,1.00008367 15.0020735,0.447405851 15.1599815,0.289497904 C16.1337462,0.315815895 16.63379,0.342133886 17.2391028,0.342133886 C17.8444156,0.342133886 18.5023673,0.315815895 19.1603162,0.289497904 C19.3182241,0.447405851 19.3182241,1.00008367 19.1603162,1.15799161 C17.7917816,1.36853554 17.2127838,2.3949372 16.554835,3.6055648 L14.6336217,7.29008358 L18.0023245,14.2380333 L18.1339145,14.2380333 L23.1343328,3.42133886 C23.7396457,2.00016733 23.7133267,1.28958157 22.0026592,1.15799161 C21.8447513,1.00008367 21.8447513,0.447405851 22.0026592,0.289497904 C23.2396038,0.315815895 24.0028275,0.342133886 24.6081403,0.342133886 C25.2134532,0.342133886 25.8714049,0.315815895 26.9241236,0.289497904 Z M24.7241344,5.15832628 C24.7241344,5.15832628 26.8032567,5.21096227 27.6191135,5.21096227 L27.7292164,5.21061557 C28.5181018,5.20606867 30.3561846,5.15832628 30.3561846,5.15832628 L30.3825026,5.21096227 L30.3825026,5.78995807 C30.3825026,5.86891205 30.3298666,5.92154803 30.2245946,5.92154803 L29.6719168,5.97418401 C28.85606,6.05313799 28.5665612,6.26368192 28.5665612,6.79004174 L28.5665612,15.5539328 C28.5665612,16.1329286 28.8297421,16.4750625 29.6719168,16.5540165 L30.2245946,16.6066525 C30.3035486,16.6066525 30.3825026,16.6592885 30.3825026,16.7645604 L30.3825026,17.3172382 L30.3561846,17.3698742 C30.3561846,17.3698742 28.3560163,17.3172382 27.5401595,17.3172382 L27.4318327,17.3175546 C26.6208795,17.3219146 24.7504524,17.3698742 24.7504524,17.3698742 L24.6978165,17.3172382 L24.6978165,16.7645604 C24.6978165,16.6592885 24.7767704,16.6066525 24.8820424,16.6066525 L25.4084022,16.5540165 C26.276895,16.4750625 26.5400758,16.0539747 26.5400758,15.5539328 L26.5400758,6.79004174 C26.5400758,6.21104593 26.224259,6.05313799 25.4084022,5.97418401 L24.8820424,5.92154803 C24.7767704,5.92154803 24.6978165,5.89523004 24.6978165,5.81627607 L24.6978165,5.21096227 Z M35.429724,11.6588701 C36.0087189,11.6588701 36.4298077,11.7904601 36.8245776,12.3168199 L39.7458746,15.9487027 C40.1143255,16.3697906 40.1406445,16.6592885 40.1406445,17.0014223 L40.1406445,17.3172382 L40.1669625,17.3435562 C40.1669625,17.3435562 41.1144101,17.3172382 41.7723599,17.3172382 C42.5092627,17.3172382 43.9041172,17.3435562 43.9041172,17.3435562 L43.9830712,17.3172382 L43.9830712,16.7645604 C43.9830712,16.6856065 43.8777992,16.6329705 43.7988453,16.6066525 L43.6672553,16.5803345 C43.1408955,16.4750625 42.5092627,16.3171546 42.1934478,15.9487027 L38.2194311,11.1588283 C38.0878412,11.0009203 37.9825692,10.8693304 37.9825692,10.7114224 C37.9825692,10.5008785 38.1404771,10.2113806 38.587883,9.73765676 L40.8512302,7.13217563 C41.7986769,6.05313799 42.5092647,6.000502 43.5356653,5.92154803 C43.6672543,5.92154803 43.7462093,5.86891205 43.7462093,5.78995807 L43.7462093,5.18464428 L43.6672553,5.15832628 C43.6672553,5.15832628 42.5092627,5.21096227 41.8249959,5.21096227 C41.0617742,5.21096227 38.9300169,5.15832628 38.9300169,5.15832628 L38.9036989,5.18464428 L38.9036989,5.78995807 C38.9036989,5.86891205 38.9563349,5.89523004 39.0616068,5.92154803 C39.5879657,6.000502 39.8248286,6.23736393 39.8248286,6.44790786 C39.8248286,6.94794969 39.0089699,7.92171537 37.9562512,9.07970698 C36.7982606,10.3166526 36.2982168,10.7640584 35.429724,10.7640584 L35.429724,6.79004174 C35.429724,6.26368192 35.7192219,6.13209196 36.5350797,5.97418401 L36.8245776,5.92154803 C36.9298495,5.89523004 36.9824855,5.86891205 36.9824855,5.78995807 L36.9824855,5.21096227 L36.9561675,5.15832628 C36.9561675,5.15832628 35.2981331,5.21096227 34.5612303,5.21096227 C33.7453726,5.21096227 31.5872973,5.15832628 31.5872973,5.15832628 L31.5609793,5.21096227 L31.5609793,5.81627607 C31.5609793,5.89523004 31.6399333,5.92154803 31.7452053,5.92154803 L32.2715651,5.97418401 C33.1137398,6.05313799 33.4032387,6.21104593 33.4032387,6.79004174 L33.4032387,15.5539328 C33.4032387,16.0539747 33.0611039,16.4750625 32.2715651,16.5540165 L31.7452053,16.6066525 C31.6399333,16.6066525 31.5609793,16.6592885 31.5609793,16.7645604 L31.5609793,17.3172382 L31.6136153,17.3698742 C31.6136153,17.3698742 33.7716906,17.3172382 34.5085943,17.3172382 C35.2981331,17.3172382 36.9561675,17.3698742 36.9561675,17.3698742 L36.9824855,17.3172382 L36.9824855,16.7645604 C36.9824855,16.6592885 36.9035315,16.6329705 36.8245776,16.6066525 L36.5350797,16.5540165 C35.7718579,16.4224265 35.429724,16.1329286 35.429724,15.5539328 L35.429724,11.6588701 M48.7181769,6.79004174 C48.7181769,6.26368192 49.0076758,6.05313799 49.8235325,5.97418401 L50.3762103,5.92154803 C50.4814823,5.92154803 50.5341183,5.86891205 50.5341183,5.78995807 L50.5341183,5.21096227 L50.5078003,5.15832628 C50.5078003,5.15832628 48.481314,5.21096227 47.7707292,5.21096227 C46.9548724,5.21096227 44.8757502,5.15832628 44.8757502,5.15832628 L44.8494322,5.21096227 L44.8494322,5.81627607 C44.8494322,5.89523004 44.9283861,5.92154803 45.0336581,5.92154803 L45.5600179,5.97418401 C46.3758747,6.05313799 46.6916916,6.21104593 46.6916916,6.79004174 L46.6916916,15.5539328 C46.6916916,16.0539747 46.4285107,16.4750625 45.5600179,16.5540165 L45.0336581,16.6066525 C44.9283861,16.6066525 44.8494322,16.6592885 44.8494322,16.7645604 L44.8494322,17.3172382 L44.9020682,17.3698742 C44.9020682,17.3698742 46.9548724,17.3172382 47.6917752,17.3172382 C48.507632,17.3172382 50.5078003,17.3698742 50.5078003,17.3698742 L50.5341183,17.3172382 L50.5341183,16.7645604 C50.5341183,16.6592885 50.4551643,16.6066525 50.3762103,16.6066525 L49.8235325,16.5540165 C48.9813578,16.4750625 48.7181769,16.1329286 48.7181769,15.5539328 L48.7181769,6.79004174 M55.5287038,6.84267772 C55.5287038,6.15840995 55.8445206,5.92154803 57.1077832,5.92154803 C58.5552708,5.92154803 59.5816744,6.42158986 59.5816744,8.68493711 C59.5816744,10.7114224 58.8184507,11.6588701 57.2393732,11.6588701 C56.7130134,11.6588701 56.0550626,11.6325521 55.5287038,11.4220082 L55.5287038,6.84267772 M53.5022184,15.6855228 C53.5022184,16.1855646 53.2390376,16.4224265 52.4231808,16.5276985 L51.870503,16.6066525 C51.765231,16.6329705 51.712595,16.6592885 51.712595,16.7645604 L51.712595,17.3172382 L51.738913,17.3698742 C51.738913,17.3698742 53.7127634,17.3172382 54.4496661,17.3172382 C55.2655229,17.3172382 57.3709632,17.3698742 57.3709632,17.3698742 L57.3972812,17.3172382 L57.3972812,16.7645604 C57.3972812,16.6592885 57.3183272,16.6329705 57.2130552,16.6066525 L56.6866954,16.5276985 C55.8445206,16.3961085 55.5287038,16.2645186 55.5287038,15.6855228 L55.5287038,12.158912 C56.0024266,12.3694559 56.5287874,12.4220919 57.1867372,12.4220919 C60.9238881,12.4220919 61.6871137,9.94820069 61.6871137,8.36912122 C61.6871137,7.00058567 61.0028421,5.15832628 57.2656912,5.15832628 C56.2919265,5.15832628 55.2392049,5.21096227 54.5023021,5.21096227 C53.7390813,5.21096227 52.1863179,5.15832628 51.791549,5.15832628 L51.738913,5.18464428 L51.738913,5.78995807 C51.738913,5.84259406 51.765231,5.92154803 51.923139,5.92154803 C53.1600826,6.000502 53.5022184,6.02682 53.5022184,6.84267772 L53.5022184,15.6855228 M69.9253907,17.3172382 C70.7149304,17.3172382 72.2676919,17.3698742 72.2676919,17.3698742 L72.3203279,17.3172382 L72.8466877,14.2906692 L72.1887379,14.2117153 C71.872923,15.5802508 71.1360173,16.4224265 69.7938007,16.4224265 L67.2935915,16.4224265 C66.8198687,16.4224265 66.5303698,15.9223847 66.5303698,15.4223429 L66.5303698,11.3956902 L68.5042191,11.3956902 C69.1884869,11.3956902 69.4253488,11.6851881 69.5306208,12.2115479 L69.6622107,12.7905437 C69.6622107,12.8694977 69.7148467,12.9221337 69.8464367,12.9221337 L70.2938425,12.9221337 L70.3464785,12.8694977 C70.2938425,12.2641839 70.1885706,11.7115061 70.1885706,11.0535563 C70.1885706,10.4219245 70.2938425,9.68502078 70.3464785,9.10602497 C70.3464785,9.05338899 70.3464785,9.027071 70.2938425,9.027071 L69.8464367,9.027071 C69.7411647,9.027071 69.6885287,9.07970698 69.6885287,9.15866095 L69.5306208,9.71133877 C69.4253488,10.2376986 69.2411229,10.5535145 68.5042191,10.5535145 L66.5303698,10.5535145 L66.5303698,6.73740576 C66.5303698,6.28999991 66.7935507,6.10577397 67.2935915,6.10577397 L69.3990308,6.10577397 C71.0833813,6.10577397 71.5834251,7.50062751 71.872922,8.47439318 L72.5308718,8.36912122 C72.3466468,7.36903755 72.1624199,6.34263589 72.1361019,5.21096227 L72.0834659,5.15832628 C72.0834659,5.15832628 70.2148886,5.21096227 69.4253488,5.21096227 L65.5566041,5.21096227 C64.7670654,5.21096227 62.7142611,5.15832628 62.7142611,5.15832628 L62.6879431,5.21096227 L62.6879431,5.81627607 C62.6879431,5.84259406 62.6879431,5.89523004 62.845851,5.92154803 L63.4511648,5.97418401 C64.1880686,6.02682 64.5038845,6.13209196 64.5038845,6.73740576 L64.5038845,15.4223429 C64.5038845,15.9487027 64.2670225,16.4750625 63.4511648,16.5540165 L62.845851,16.6066525 C62.714262,16.6066525 62.6879431,16.6856065 62.6879431,16.7382424 L62.6879431,17.3172382 L62.7142611,17.3698742 C62.7142611,17.3698742 64.5302034,17.3172382 65.3197422,17.3172382 L69.9253907,17.3172382 M74.1259126,16.7645604 L74.1259126,17.3172382 L74.1522306,17.3698742 C74.1522306,17.3698742 76.1523989,17.3172382 76.9419377,17.3172382 C77.7577954,17.3172382 78.6789281,17.3698742 80.7843644,17.3698742 C83.7056585,17.3698742 86.9690924,16.0013387 86.9690924,11.3956902 C86.9690924,7.89539737 84.8110132,5.15832628 80.4159126,5.15832628 C79.7316458,5.15832628 77.4419795,5.21096227 76.9419377,5.21096227 C76.4682148,5.21096227 74.1522306,5.15832628 74.1522306,5.15832628 L74.1259126,5.21096227 L74.1259126,5.78995807 C74.1259126,5.86891205 74.2048666,5.92154803 74.3101386,5.92154803 L74.8891344,5.97418401 C75.7576271,6.05313799 75.941854,6.05313799 75.941854,6.73740576 L75.941854,15.4223429 C75.941854,16.2382006 75.6786741,16.4750625 74.8891344,16.5540165 L74.2838206,16.6066525 C74.1785486,16.6066525 74.1259126,16.6856065 74.1259126,16.7645604 M77.9683394,15.4223429 L77.9683394,6.73740576 C77.9683394,6.07945598 78.6262901,5.92154803 79.6526908,5.92154803 C84.0741094,5.92154803 84.6794271,9.10602497 84.6794271,11.8430961 C84.6794271,15.5276148 83.0477088,16.6066525 80.1527326,16.6066525 C78.1525673,16.6066525 77.9683394,16.1592466 77.9683394,15.4223429 M95.8331731,5.15832628 C95.8331731,5.15832628 98.0965204,5.21096227 98.8860601,5.21096227 L99.0045161,5.21058066 C99.8025754,5.20583026 101.465223,5.15832628 101.465223,5.15832628 L101.517859,5.21096227 L101.517859,5.78995807 C101.517859,5.86891205 101.438905,5.89523004 101.333633,5.92154803 L100.991499,5.97418401 C100.175642,6.10577397 99.8598258,6.23736393 99.8598258,6.76372375 L99.8598258,14.7907111 C99.8598258,18.106778 98.9913223,19.8437654 97.5701605,20.975439 C96.4648049,21.8965687 95.3857673,21.9228867 94.7804535,21.9228867 C94.2277757,21.9228867 93.201374,21.4754809 93.201374,20.6069871 C93.201374,20.0543093 93.8066878,19.7121754 94.1488217,19.7121754 C94.8857157,19.7121754 95.1752233,20.0543093 95.4120853,20.3701252 C95.5963112,20.6333051 95.7542192,20.8175311 96.096353,20.8175311 C96.912201,20.8175311 97.8333405,20.0806273 97.8333405,15.3433889 L97.8333405,6.76372375 C97.8333405,6.18472794 97.5175148,6.02682 96.7016668,5.97418401 L95.9647631,5.92154803 C95.8858091,5.92154803 95.8068551,5.86891205 95.8068551,5.78995807 L95.8068551,5.21096227 Z M88.4173285,5.15832628 C88.4173285,5.15832628 90.4964499,5.21096227 91.3123076,5.21096227 L91.4224106,5.21061557 C92.2112967,5.20606867 94.0493787,5.15832628 94.0493787,5.15832628 L94.0756967,5.21096227 L94.0756967,5.78995807 C94.0756967,5.86891205 94.0230607,5.92154803 93.9177887,5.92154803 L93.3651109,5.97418401 C92.5492532,6.05313799 92.2597553,6.26368192 92.2597553,6.79004174 L92.2597553,15.5539328 C92.2597553,16.1329286 92.5229352,16.4750625 93.3651109,16.5540165 L93.9177887,16.6066525 C93.9967427,16.6066525 94.0756967,16.6592885 94.0756967,16.7645604 L94.0756967,17.3172382 L94.0493787,17.3698742 C94.0493787,17.3698742 92.0492113,17.3172382 91.2333536,17.3172382 L91.1250267,17.3175546 C90.3140727,17.3219146 88.4436465,17.3698742 88.4436465,17.3698742 L88.3910106,17.3172382 L88.3910106,16.7645604 C88.3910106,16.6592885 88.4699645,16.6066525 88.5752365,16.6066525 L89.1015963,16.5540165 C89.97009,16.4750625 90.2332699,16.0539747 90.2332699,15.5539328 L90.2332699,6.79004174 C90.2332699,6.21104593 89.917454,6.05313799 89.1015963,5.97418401 L88.5752365,5.92154803 C88.4699645,5.92154803 88.3910106,5.89523004 88.3910106,5.81627607 L88.3910106,5.21096227 Z M108.762218,9.86924672 C108.183222,9.86924672 107.998996,9.79029274 108.104268,9.52711283 L110.736067,2.84234305 L110.788703,2.84234305 L113.341548,9.86924672 L108.762218,9.86924672 M105.840921,15.2381169 L107.367364,11.4220082 C107.498954,11.0798743 107.656862,10.9746023 108.288494,10.9746023 L113.762636,10.9746023 L115.368034,15.4223429 C115.631213,16.1592466 115.262762,16.4750625 114.262678,16.5540165 L113.525774,16.6066525 C113.394184,16.6066525 113.341548,16.6856065 113.341548,16.8171964 L113.341548,17.3172382 L113.367866,17.3698742 C113.367866,17.3698742 115.947029,17.3172382 116.868159,17.3172382 C117.894561,17.3172382 119.921046,17.3698742 119.921046,17.3698742 L120,17.3172382 L120,16.8171964 C120,16.6856065 119.86841,16.6066525 119.73682,16.6066525 L119.447322,16.5803345 C118.394603,16.4750625 117.868243,16.0802927 117.499791,15.053891 L112.104603,0.789539737 C111.894059,0.263179912 111.762469,0 111.394017,0 C110.999247,0 110.788703,0.263179912 110.499205,0.947447685 L104.656611,14.6328031 C103.919707,16.3171546 103.261758,16.5276985 102.103766,16.6066525 C101.972176,16.6066525 101.893222,16.6856065 101.893222,16.8171964 L101.893222,17.3172382 L101.945858,17.3698742 C101.945858,17.3698742 103.630209,17.3172382 104.314477,17.3172382 C104.946109,17.3172382 107.81477,17.3698742 107.81477,17.3698742 L107.867406,17.3172382 L107.867406,16.8171964 C107.867406,16.6856065 107.762134,16.6066525 107.656862,16.6066525 L106.89364,16.5540165 C105.919875,16.4750625 105.577741,15.8960667 105.840921,15.2381169" id="dsb-wordmark" fill="#000000" fill-rule="nonzero"></path>
    </g>
</svg>

<svg xmlns="http://www.w3.org/2000/svg" width="120" height="22"><path fill="#000" fill-rule="nonzero" d="M26.924.29c.158.157.158.71 0 .868-1.737.21-2.053 1.237-2.605 2.448l-6.211 13.422c-.185.395-.343.605-.632.605-.263 0-.474-.21-.605-.605l-3.553-7.632-3.869 7.632c-.158.395-.342.605-.632.605-.263 0-.447-.21-.605-.605L2.475 3.553C1.685 1.684 1.633 1.29.132 1.158-.025 1-.052.448.106.289 1.343.316 1.79.342 2.843.342 3.87.342 4.528.316 5.764.29c.158.158.158.711 0 .869-1.658.184-1.737.605-1.079 2.105l4.817 10.975h.131l2.922-5.974-2.211-4.711c-.869-1.869-1.08-2.237-2.21-2.395C7.974 1 7.948.448 8.106.289c.842.027 1.29.053 2.342.053 1.026 0 1.448-.026 2.395-.053.158.158.158.711 0 .869-1.105.158-1 .605-.29 2.105l1.29 2.659.132.131 1.395-2.632c.79-1.526.92-2.105-.211-2.263-.158-.158-.158-.71 0-.869.974.027 1.474.053 2.08.053.604 0 1.262-.026 1.92-.053.158.158.158.711 0 .869-1.368.21-1.947 1.237-2.605 2.448L14.634 7.29l3.368 6.948h.132l5-10.817c.606-1.42.58-2.131-1.131-2.263-.158-.158-.158-.71 0-.869 1.237.027 2 .053 2.605.053S25.871.316 26.924.29Zm-2.2 4.868s2.08.053 2.895.053h.11c.79-.005 2.627-.053 2.627-.053l.027.053v.579c0 .079-.053.132-.158.132l-.553.052c-.816.08-1.105.29-1.105.816v8.764c0 .579.263.921 1.105 1l.553.053c.079 0 .158.052.158.158v.552l-.027.053s-2-.053-2.816-.053h-.108c-.811.005-2.682.053-2.682.053l-.052-.053v-.552c0-.106.079-.158.184-.158l.526-.053c.869-.079 1.132-.5 1.132-1V6.79c0-.579-.316-.737-1.132-.816l-.526-.052c-.105 0-.184-.027-.184-.106v-.605Zm10.706 6.5c.579 0 1 .132 1.395.659l2.92 3.632c.37.42.396.71.396 1.052v.316l.026.027s.947-.027 1.605-.027c.737 0 2.132.027 2.132.027l.08-.027v-.552c0-.08-.106-.132-.185-.158l-.132-.027c-.526-.105-1.158-.263-1.474-.631l-3.974-4.79c-.131-.158-.236-.29-.236-.448 0-.21.157-.5.605-.973l2.263-2.606c.948-1.079 1.658-1.131 2.685-1.21.131 0 .21-.053.21-.132v-.605l-.079-.027s-1.158.053-1.842.053c-.763 0-2.895-.053-2.895-.053l-.026.027v.605c0 .079.052.105.158.132.526.079.763.315.763.526 0 .5-.816 1.474-1.869 2.632-1.158 1.237-1.658 1.684-2.526 1.684V6.79c0-.526.29-.658 1.105-.816l.29-.052c.105-.027.157-.053.157-.132v-.579l-.026-.053s-1.658.053-2.395.053c-.816 0-2.974-.053-2.974-.053l-.026.053v.605c0 .08.079.106.184.106l.527.052c.842.08 1.131.237 1.131.816v8.764c0 .5-.342.921-1.131 1l-.527.053c-.105 0-.184.052-.184.158v.552l.053.053s2.158-.053 2.895-.053c.79 0 2.447.053 2.447.053l.026-.053v-.552c0-.106-.078-.132-.157-.158l-.29-.053c-.763-.132-1.105-.421-1.105-1v-3.895M48.718 6.79c0-.526.29-.737 1.106-.816l.552-.052c.105 0 .158-.053.158-.132v-.579l-.026-.053s-2.027.053-2.737.053c-.816 0-2.895-.053-2.895-.053l-.027.053v.605c0 .08.08.106.185.106l.526.052c.816.08 1.132.237 1.132.816v8.764c0 .5-.263.921-1.132 1l-.526.053c-.106 0-.185.052-.185.158v.552l.053.053s2.053-.053 2.79-.053c.816 0 2.816.053 2.816.053l.026-.053v-.552c0-.106-.079-.158-.158-.158l-.552-.053c-.843-.079-1.106-.421-1.106-1V6.79m6.81.053c0-.685.317-.921 1.58-.921 1.447 0 2.474.5 2.474 2.763 0 2.026-.764 2.974-2.343 2.974-.526 0-1.184-.026-1.71-.237v-4.58m-2.027 8.844c0 .5-.263.736-1.079.842l-.552.079c-.106.026-.158.052-.158.158v.552l.026.053s1.974-.053 2.71-.053c.817 0 2.922.053 2.922.053l.026-.053v-.552c0-.106-.079-.132-.184-.158l-.526-.08c-.842-.13-1.158-.262-1.158-.841v-3.527c.473.21 1 .263 1.658.263 3.737 0 4.5-2.474 4.5-4.053 0-1.368-.684-3.21-4.421-3.21-.974 0-2.027.052-2.764.052-.763 0-2.316-.053-2.71-.053l-.053.027v.605c0 .053.026.132.184.132 1.237.079 1.58.105 1.58.92v8.844m16.422 1.631c.79 0 2.343.053 2.343.053l.052-.053.527-3.026-.658-.08c-.316 1.37-1.053 2.211-2.395 2.211h-2.5c-.474 0-.764-.5-.764-1v-4.026h1.974c.684 0 .921.29 1.027.816l.131.579c0 .078.053.131.184.131h.448l.052-.053c-.052-.605-.157-1.157-.157-1.815 0-.632.105-1.369.157-1.948 0-.053 0-.079-.052-.079h-.448c-.105 0-.157.053-.157.132l-.158.552c-.106.527-.29.843-1.027.843H66.53V6.737c0-.447.264-.631.764-.631h2.105c1.684 0 2.184 1.395 2.474 2.368l.658-.105c-.184-1-.369-2.026-.395-3.158l-.053-.053s-1.868.053-2.658.053h-3.868c-.79 0-2.843-.053-2.843-.053l-.026.053v.605c0 .027 0 .08.158.106l.605.052c.737.053 1.053.158 1.053.763v8.685c0 .527-.237 1.053-1.053 1.132l-.605.053c-.132 0-.158.079-.158.131v.58l.026.052s1.816-.053 2.606-.053h4.605m4.2-.552v.552l.027.053s2-.053 2.79-.053c.816 0 1.737.053 3.842.053 2.922 0 6.185-1.369 6.185-5.974 0-3.5-2.158-6.238-6.553-6.238-.684 0-2.974.053-3.474.053-.474 0-2.79-.053-2.79-.053l-.026.053v.579c0 .079.079.132.184.132l.58.052c.868.08 1.052.08 1.052.763v8.685c0 .816-.263 1.053-1.053 1.132l-.605.053c-.105 0-.158.079-.158.158m3.842-1.343V6.737c0-.658.658-.815 1.685-.815 4.421 0 5.026 3.184 5.026 5.921 0 3.685-1.631 4.764-4.526 4.764-2 0-2.185-.448-2.185-1.185M95.833 5.158s2.264.053 3.053.053h.119c.798-.005 2.46-.053 2.46-.053l.053.053v.579c0 .079-.08.105-.184.132l-.343.052c-.815.132-1.131.263-1.131.79v8.027c0 3.316-.869 5.053-2.29 6.184-1.105.922-2.184.948-2.79.948-.552 0-1.579-.448-1.579-1.316 0-.553.606-.895.948-.895.737 0 1.026.342 1.263.658.184.263.342.448.684.448.816 0 1.737-.737 1.737-5.475v-8.58c0-.578-.315-.736-1.131-.789l-.737-.052c-.08 0-.158-.053-.158-.132v-.579Zm-7.416 0s2.08.053 2.895.053h.11c.79-.005 2.627-.053 2.627-.053l.027.053v.579c0 .079-.053.132-.158.132l-.553.052c-.816.08-1.105.29-1.105.816v8.764c0 .579.263.921 1.105 1l.553.053c.079 0 .158.052.158.158v.552l-.027.053s-2-.053-2.816-.053h-.108c-.81.005-2.681.053-2.681.053l-.053-.053v-.552c0-.106.079-.158.184-.158l.527-.053c.868-.079 1.131-.5 1.131-1V6.79c0-.579-.316-.737-1.131-.816l-.527-.052c-.105 0-.184-.027-.184-.106v-.605Zm20.345 4.711c-.579 0-.763-.079-.658-.342l2.632-6.685h.053l2.553 7.027h-4.58m-2.921 5.37 1.526-3.817c.132-.342.29-.447.921-.447h5.475l1.605 4.447c.263.737-.105 1.053-1.105 1.132l-.737.053c-.132 0-.184.079-.184.21v.5l.026.053s2.579-.053 3.5-.053c1.027 0 3.053.053 3.053.053l.079-.053v-.5c0-.131-.132-.21-.263-.21l-.29-.027c-1.052-.105-1.579-.5-1.947-1.526L112.105.79c-.21-.527-.343-.79-.711-.79-.395 0-.605.263-.895.947l-5.842 13.686c-.737 1.684-1.395 1.895-2.553 1.974-.132 0-.21.079-.21.21v.5l.052.053s1.684-.053 2.368-.053c.632 0 3.5.053 3.5.053l.053-.053v-.5a.208.208 0 0 0-.21-.21l-.763-.053c-.974-.079-1.316-.658-1.053-1.316"/></svg>
